assets/icons/24px/stroke/arrow-bend-left-up-24px.svg

<svg width="24" height="24" viewBox="0 0 24 24" fill="none" xmlns="http://www.w3.org/2000/svg">
<path fill-rule="evenodd" clip-rule="evenodd" d="M12.5088 15.2716C13.0174 15.4823 13.5971 15.5 15.3137 15.5H21C21.5523 15.5 22 15.9477 22 16.5C22 17.0523 21.5523 17.5 21 17.5H15.3137C15.2495 17.5 15.1861 17.5 15.1236 17.5001C13.6732 17.5008 12.6653 17.5012 11.7434 17.1194C10.8216 16.7376 10.1092 16.0245 9.08415 14.9985C9.03995 14.9542 8.99516 14.9094 8.94975 14.864L4 9.91422V15.5C4 16.0523 3.55228 16.5 3 16.5C2.44772 16.5 2 16.0523 2 15.5V7.5C2 6.94772 2.44772 6.5 3 6.5L11 6.5C11.5523 6.5 12 6.94772 12 7.5C12 8.05229 11.5523 8.5 11 8.5L5.41422 8.5L10.364 13.4498C11.5778 14.6636 12.0002 15.061 12.5088 15.2716Z" fill="white"/>
</svg>

<svg width="24" height="24" fill="none" xmlns="http://www.w3.org/2000/svg"><path fill-rule="evenodd" clip-rule="evenodd" d="M12.509 15.272c.508.21 1.088.228 2.805.228H21a1 1 0 1 1 0 2h-5.876c-1.45 0-2.459.001-3.38-.38-.922-.382-1.635-1.096-2.66-2.122l-.134-.134L4 9.914V15.5a1 1 0 1 1-2 0v-8a1 1 0 0 1 1-1h8a1 1 0 1 1 0 2H5.414l4.95 4.95c1.214 1.214 1.636 1.611 2.145 1.822z" fill="#fff"/></svg>
